icons/desktop/16/svg/horizontal-scrolling-16.svg

<svg width="16" height="16" viewBox="0 0 16 16" fill="none" xmlns="http://www.w3.org/2000/svg">
<path fill-rule="evenodd" clip-rule="evenodd" d="M8.79199 2C10.1862 2 11.3505 3.03853 11.5244 4.41504C11.661 5.49243 11.75 6.69402 11.75 8C11.75 9.05379 11.691 10.2711 11.5195 11.6152C11.3444 12.9897 10.1589 14 8.79199 14H7.20801C5.81381 14 4.64959 12.9614 4.47559 11.585C4.339 10.5076 4.25001 9.30598 4.25 8C4.25 6.94621 4.309 5.72885 4.48047 4.38477C4.65559 3.0102 5.84104 2 7.20801 2H8.79199ZM7.20801 3.5C6.57732 3.5 6.04512 3.9673 5.96777 4.57422C5.8053 5.84792 5.75 7.00193 5.75 8C5.75001 9.23767 5.8345 10.3761 5.96387 11.3965C6.04397 12.0299 6.57628 12.5 7.20801 12.5H8.79199C9.42275 12.5 9.95498 12.0318 10.0322 11.4248C10.1947 10.1511 10.25 8.99807 10.25 8C10.25 6.76233 10.1655 5.6239 10.0361 4.60352C9.95608 3.97003 9.42375 3.5 8.79199 3.5H7.20801Z" fill="black"/>
<path d="M1 2.17383C1.937 2.52383 2.64437 3.37106 2.77637 4.41406C3.07733 6.79997 3.07545 9.24037 2.77246 11.6133C2.64033 12.6431 1.93388 13.4792 1 13.8252V12.0303C1.142 11.8583 1.2532 11.6578 1.2832 11.4238C1.5702 9.17484 1.57211 6.86353 1.28711 4.60254C1.25706 4.36166 1.14395 4.15547 1 3.97754V2.17383Z" fill="black"/>
<path d="M15 3.9707C14.858 4.1437 14.7478 4.34317 14.7178 4.57617C14.4298 6.82694 14.4279 9.13772 14.7139 11.3965C14.7439 11.6364 14.8561 11.8426 15 12.0195V13.8252C14.065 13.4752 13.3576 12.6289 13.2256 11.5859C13.0756 10.399 13 9.19295 13 8.00098C13 6.79598 13.0765 5.57972 13.2285 4.38672C13.3606 3.35678 14.066 2.52079 15 2.1748V3.9707Z" fill="black"/>
</svg>

<!-- This Source Code Form is subject to the terms of the Mozilla Public
   - License, v. 2.0. If a copy of the MPL was not distributed with this
   - file, You can obtain one at http://mozilla.org/MPL/2.0/. -->
<svg xmlns="http://www.w3.org/2000/svg" width="16" height="16" fill="context-fill" fill-opacity="context-fill-opacity" viewBox="0 0 16 16">
    <path fill-rule="evenodd" d="M8.792 2a2.755 2.755 0 0 1 2.732 2.415 28.5 28.5 0 0 1-.004 7.2C11.344 12.99 10.159 14 8.792 14H7.208a2.755 2.755 0 0 1-2.732-2.415 28.5 28.5 0 0 1 .004-7.2C4.656 3.01 5.841 2 7.208 2zM7.208 3.5c-.63 0-1.163.467-1.24 1.074a27 27 0 0 0-.004 6.823c.08.633.612 1.103 1.244 1.103h1.584c.63 0 1.163-.468 1.24-1.075a27 27 0 0 0 .004-6.821A1.255 1.255 0 0 0 8.792 3.5z" clip-rule="evenodd" />
    <path d="M1 2.174a2.77 2.77 0 0 1 1.776 2.24c.301 2.386.3 4.826-.004 7.2A2.74 2.74 0 0 1 1 13.824V12.03c.142-.172.253-.372.283-.606.287-2.25.29-4.56.004-6.821A1.24 1.24 0 0 0 1 3.978zM15 3.97a1.2 1.2 0 0 0-.282.606 27 27 0 0 0-.004 6.82c.03.24.142.447.286.624v1.805a2.77 2.77 0 0 1-1.774-2.24 28.7 28.7 0 0 1 .002-7.198A2.74 2.74 0 0 1 15 2.175z" />
</svg>
